src/browser/themes/shared/zen-icons/lin/settings-fill.svg

#filter dumbComments emptyLines substitution
# This Source Code Form is subject to the terms of the Mozilla Public
# License, v. 2.0. If a copy of the MPL was not distributed with this
# file, You can obtain one at http://mozilla.org/MPL/2.0/.
<svg xmlns="http://www.w3.org/2000/svg" height="18" width="18" viewBox="0 0 18 18"><g fill="context-fill" fill-opacity="context-fill-opacity" class="nc-icon-wrapper"><path d="M15.676,6.934l-.907-.32c-.104-.251-.22-.499-.358-.739-.131-.227-.296-.425-.451-.631l.184-.983c.153-.826-.232-1.664-.96-2.084l-.352-.203c-.728-.42-1.645-.336-2.284,.211l-.729,.624c-.543-.073-1.087-.08-1.623-.01l-.728-.623c-.639-.546-1.557-.632-2.285-.211l-.351,.203c-.728,.419-1.113,1.257-.959,2.084l.174,.933c-.326,.423-.575,.9-.784,1.399l-.939,.331c-.792,.28-1.324,1.033-1.324,1.873v.405c0,.841,.532,1.593,1.324,1.873l.906,.32c.104,.251,.219,.499,.358,.738,.131,.228,.296,.426,.452,.632l-.184,.983c-.153,.826,.232,1.664,.96,2.084l.352,.203c.309,.178,.651,.266,.992,.266,.463,0,.924-.162,1.292-.477l.724-.62c.278,.037,.556,.057,.833,.057,.266,0,.531-.018,.794-.052l.729,.624c.368,.315,.829,.477,1.293,.477,.341,0,.684-.087,.992-.266l.351-.203c.728-.419,1.113-1.257,.959-2.084l-.174-.934c.326-.423,.574-.899,.783-1.397l.94-.332c.792-.28,1.324-1.033,1.324-1.873v-.405c0-.841-.532-1.593-1.324-1.873Zm-6.676,5.066c-1.657,0-3-1.343-3-3s1.343-3,3-3,3,1.343,3,3-1.343,3-3,3Z"></path></g></svg>

#filter dumbComments emptyLines substitution
# This Source Code Form is subject to the terms of the Mozilla Public
# License, v. 2.0. If a copy of the MPL was not distributed with this
# file, You can obtain one at http://mozilla.org/MPL/2.0/.
<svg fill="context-fill" fill-opacity="context-fill-opacity" height="18" width="18" viewBox="0 0 18 18" xmlns="http://www.w3.org/2000/svg" xmlns:svg="http://www.w3.org/2000/svg"><path class="nc-icon-wrapper" d="M 15.676,6.934 14.769,6.614 C 14.665,6.363 14.549,6.115 14.411,5.875 14.28,5.648 14.115,5.45 13.96,5.244 L 14.144,4.261 C 14.297,3.435 13.912,2.597 13.184,2.177 L 12.832,1.974 C 12.104,1.554 11.187,1.638 10.548,2.185 L 9.819,2.809 C 9.276,2.736 8.732,2.729 8.196,2.799 L 7.468,2.176 C 6.829,1.63 5.911,1.544 5.183,1.965 L 4.832,2.168 C 4.104,2.587 3.719,3.425 3.873,4.252 L 4.047,5.185 C 3.721,5.608 3.472,6.085 3.263,6.584 L 2.324,6.915 C 1.532,7.195 1,7.948 1,8.788 v 0.405 c 0,0.841 0.532,1.593 1.324,1.873 l 0.906,0.32 c 0.104,0.251 0.219,0.499 0.358,0.738 0.131,0.228 0.296,0.426 0.452,0.632 l -0.184,0.983 c -0.153,0.826 0.232,1.664 0.96,2.084 l 0.352,0.203 c 0.309,0.178 0.651,0.266 0.992,0.266 0.463,0 0.924,-0.162 1.292,-0.477 l 0.724,-0.62 c 0.278,0.037 0.556,0.057 0.833,0.057 0.266,0 0.531,-0.018 0.794,-0.052 l 0.729,0.624 c 0.368,0.315 0.829,0.477 1.293,0.477 0.341,0 0.684,-0.087 0.992,-0.266 l 0.351,-0.203 c 0.728,-0.419 1.113,-1.257 0.959,-2.084 l -0.174,-0.934 c 0.326,-0.423 0.574,-0.899 0.783,-1.397 l 0.94,-0.332 C 16.468,10.805 17,10.052 17,9.212 V 8.807 C 17,7.966 16.468,7.214 15.676,6.934 Z M 9,12 C 7.343,12 6,10.657 6,9 6,7.343 7.343,6 9,6 c 1.657,0 3,1.343 3,3 0,1.657 -1.343,3 -3,3 z"/></svg>
